icons/fill-new-symbol-info-circle.svg

<svg xmlns="http://www.w3.org/2000/svg" width="32px" height="32px" viewBox="0 0 32 32" version="1.1">
    <title>fill-new-symbol-info-circle</title>
    <g id="fill-new-symbol-info-circle" stroke-width="1" fill-rule="evenodd">
        <path d="M16,2 C23.7319865,2 30,8.2680135 30,16 C30,23.7319865 23.7319865,30 16,30 C8.2680135,30 2,23.7319865 2,16 C2,8.2680135 8.2680135,2 16,2 Z M18,23 C18.5522847,23 19,22.5522847 19,22 C19,21.4477153 18.5522847,21 18,21 L17,21 L17,14 C17,13.4871642 16.6139598,13.0644928 16.1166211,13.0067277 L16,13 L14,13 C13.4477153,13 13,13.4477153 13,14 L13.0067277,14.1166211 C13.0644928,14.6139598 13.4871642,15 14,15 L15,15 L15,21 L14,21 C13.4871642,21 13.0644928,21.3860402 13.0067277,21.8833789 L13,22 C13,22.5522847 13.4477153,23 14,23 L18,23 Z M16,8 C15.1715729,8 14.5,8.67157288 14.5,9.5 C14.5,10.3284271 15.1715729,11 16,11 C16.8284271,11 17.5,10.3284271 17.5,9.5 C17.5,8.67157288 16.8284271,8 16,8 Z" id="&#24418;&#29366;" />
    </g>
</svg>

<svg xmlns="http://www.w3.org/2000/svg" viewBox="0 0 32 32"><path fill="currentColor" d="M16 2c7.732 0 14 6.268 14 14s-6.268 14-14 14S2 23.732 2 16 8.268 2 16 2m2 21a1 1 0 0 0 0-2h-1v-7a1 1 0 0 0-.883-.993L16 13h-2a1 1 0 0 0-1 1l.007.117A1 1 0 0 0 14 15h1v6h-1a1 1 0 0 0-.993.883L13 22a1 1 0 0 0 1 1zM16 8a1.5 1.5 0 1 0 0 3 1.5 1.5 0 0 0 0-3"/></svg>
